fileicons/icons/edge.svg

<svg version="1.1" viewBox="0 0 24 24" xmlns="http://www.w3.org/2000/svg"><path d="m12 15c.81 0 1.5-.3 2.11-.89.59-.61.89-1.3.89-2.11s-.3-1.5-.89-2.11c-.61-.59-1.3-.89-2.11-.89s-1.5.3-2.11.89c-.59.61-.89 1.3-.89 2.11s.3 1.5.89 2.11c.61.59 1.3.89 2.11.89m0-13c2.75 0 5.1 1 7.05 2.95s2.95 4.3 2.95 7.05v1.45c0 1-.35 1.85-1 2.55-.7.67-1.5 1-2.5 1-1.2 0-2.19-.5-2.94-1.5-1 1-2.18 1.5-3.56 1.5-1.37 0-2.55-.5-3.54-1.46-.96-.99-1.46-2.16-1.46-3.54 0-1.37.5-2.55 1.46-3.54.99-.96 2.17-1.46 3.54-1.46 1.38 0 2.55.5 3.54 1.46.96.99 1.46 2.17 1.46 3.54v1.45c0 .41.16.77.46 1.08s.65.47 1.04.47c.42 0 .77-.16 1.07-.47s.43-.67.43-1.08v-1.45c0-2.19-.77-4.07-2.35-5.65s-3.46-2.35-5.65-2.35-4.07.77-5.65 2.35-2.35 3.46-2.35 5.65.77 4.07 2.35 5.65 3.46 2.35 5.65 2.35h5v2h-5c-2.75 0-5.1-1-7.05-2.95s-2.95-4.3-2.95-7.05 1-5.1 2.95-7.05 4.3-2.95 7.05-2.95z" style="fill:#ef6c00"/></svg>

<svg xmlns="http://www.w3.org/2000/svg" viewBox="0 0 24 24"><path fill="#ef6c00" d="M12 15c.81 0 1.5-.3 2.11-.89.59-.61.89-1.3.89-2.11s-.3-1.5-.89-2.11C13.5 9.3 12.81 9 12 9s-1.5.3-2.11.89C9.3 10.5 9 11.19 9 12s.3 1.5.89 2.11c.61.59 1.3.89 2.11.89m0-13c2.75 0 5.1 1 7.05 2.95S22 9.25 22 12v1.45c0 1-.35 1.85-1 2.55-.7.67-1.5 1-2.5 1-1.2 0-2.19-.5-2.94-1.5-1 1-2.18 1.5-3.56 1.5-1.37 0-2.55-.5-3.54-1.46C7.5 14.55 7 13.38 7 12c0-1.37.5-2.55 1.46-3.54C9.45 7.5 10.63 7 12 7c1.38 0 2.55.5 3.54 1.46C16.5 9.45 17 10.63 17 12v1.45c0 .41.16.77.46 1.08s.65.47 1.04.47c.42 0 .77-.16 1.07-.47s.43-.67.43-1.08V12c0-2.19-.77-4.07-2.35-5.65S14.19 4 12 4s-4.07.77-5.65 2.35S4 9.81 4 12s.77 4.07 2.35 5.65S9.81 20 12 20h5v2h-5c-2.75 0-5.1-1-7.05-2.95S2 14.75 2 12s1-5.1 2.95-7.05S9.25 2 12 2"/></svg>
